public/img/values/value-1.svg

<svg width="32" height="54" viewBox="0 0 32 54" fill="none" xmlns="http://www.w3.org/2000/svg">
<path d="M24 32H18.6667V26.6667H13.3333V32H8V37.3333H13.3333V42.6667H18.6667V37.3333H24V32ZM32 26.6667V53.3333H0V26.6667C0 18.7467 5.76 12.1867 13.3333 10.9067V5.33333H8V0H24V5.33333H18.6667V10.9067C26.24 12.1867 32 18.7467 32 26.6667Z" fill="#0F172A"/>
</svg>

<svg width="32" height="54" fill="none" xmlns="http://www.w3.org/2000/svg"><path d="M24 32h-5.33v-5.33h-5.34V32H8v5.33h5.33v5.34h5.34v-5.34H24V32Zm8-5.33v26.66H0V26.67A16 16 0 0 1 13.33 10.9V5.33H8V0h16v5.33h-5.33v5.58A16 16 0 0 1 32 26.67Z" fill="#0F172A"/></svg>
